healthcode/ykm/static/e5cebec2f715d6d4f4c4e19b5856f836.svg

<svg height="36" viewBox="0 0 36 36" width="36" xmlns="http://www.w3.org/2000/svg"><g fill="none" fill-rule="evenodd"><path d="m0 0h36v36h-36z"/><path d="m7.14642837 15.2660719c.06700683.0502551.12653069.109779.17678581.1767858l2.73214182 3.6428558c.2929083.3905444.2137586.9445923-.17678581 1.2375007-.15300474.1147535-.33910153.1767858-.53035745.1767858l-1.29784733.0009739c1.2945494 4.3539713 5.33200739 7.4990261 10.06570549 7.4990261 3.7868864 0 7.2203999-2.0202422 9.0878263-5.2366314.4159569-.7164296 1.3339376-.9600108 2.0503671-.5440538.7164296.4159569.9600108 1.3339376.5440538 2.0503671-2.398938 4.1318461-6.815185 6.7303181-11.6822472 6.7303181-6.392631 0-11.79663239-4.4596503-13.16556713-10.4997107l-1.06657468-.0002893c-.48818056 0-.88392909-.3957485-.88392909-.8839291 0-.1912559.06203226-.3773527.17678582-.5303574l2.73214182-3.6428558c.29290834-.3905445.84695628-.4696942 1.23750073-.1767858zm10.96964253-11.2660719c6.3910013 0 11.7967993 4.45823418 13.1657609 10.5006155l1.0663809-.0006155c.191256 0 .3773528.0620323.5303575.1767858.3905444.2929084.4696941.8469563.1767858 1.2375007l-2.7321418 3.6428558c-.0502551.0670068-.109779.1265307-.1767858.1767858-.3905445.2929084-.9445924.2137587-1.2375008-.1767858l-2.7321418-3.6428558c-.1147535-.1530047-.1767858-.3391015-.1767858-.5303574 0-.4881806.3957485-.8839291.8839291-.8839291l1.2982775.0004024c-1.2943572-4.3558507-5.3333028-7.5004024-10.0661357-7.5004024-3.8095477 0-7.2606176 2.04467879-9.11960971 5.2917586-.411602.7189404-1.32808769.9680874-2.04702809.5564854-.71894039-.411602-.96808739-1.3280877-.55648539-2.0470281 2.38816363-4.17137744 6.82688339-6.8012159 11.72312319-6.8012159z" fill="#4292f3" fill-rule="nonzero"/></g></svg>

<?xml version="1.0" encoding="UTF-8"?>
<svg width="36px" height="36px" viewBox="0 0 36 36" version="1.1" xmlns="http://www.w3.org/2000/svg" xmlns:xlink="http://www.w3.org/1999/xlink">
    <title>刷新</title>
    <g id="20210510-（增加核酸信息刷新按钮）" stroke="none" stroke-width="1" fill="none" fill-rule="evenodd">
        <g id="画板" transform="translate(-596.000000, -179.000000)">
            <g id="2标题/1页面标题" transform="translate(0.000000, 128.000000)">
                <g id="刷新" transform="translate(596.000000, 51.000000)">
                    <rect id="矩形" x="0" y="0" width="36" height="36"></rect>
                    <path d="M7.14642837,15.2660719 C7.2134352,15.316327 7.27295906,15.3758509 7.32321418,15.4428577 L10.055356,19.0857135 C10.3482643,19.4762579 10.2691146,20.0303058 9.87857019,20.3232142 C9.72556545,20.4379677 9.53946866,20.5 9.34821274,20.5 L8.05036541,20.5009739 C9.34491481,24.8549452 13.3823728,28 18.1160709,28 C21.9029573,28 25.3364708,25.9797578 27.2038972,22.7633686 C27.6198541,22.046939 28.5378348,21.8033578 29.2542643,22.2193148 C29.9706939,22.6352717 30.2142751,23.5532524 29.7983181,24.2696819 C27.3993801,28.401528 22.9831331,31 18.1160709,31 C11.7234399,31 6.31943851,26.5403497 4.95050377,20.5002893 L3.88392909,20.5 C3.39574853,20.5 3,20.1042515 3,19.6160709 C3,19.424815 3.06203226,19.2387182 3.17678582,19.0857135 L5.90892764,15.4428577 C6.20183598,15.0523132 6.75588392,14.9731635 7.14642837,15.2660719 Z M18.1160709,4 C24.5070722,4 29.9128702,8.45823418 31.2818318,14.5006155 L32.3482127,14.5 C32.5394687,14.5 32.7255655,14.5620323 32.8785702,14.6767858 C33.2691146,14.9696942 33.3482643,15.5237421 33.055356,15.9142865 L33.055356,15.9142865 L30.3232142,19.5571423 C30.2729591,19.6241491 30.2134352,19.683673 30.1464284,19.7339281 C29.7558839,20.0268365 29.201836,19.9476868 28.9089276,19.5571423 L28.9089276,19.5571423 L26.1767858,15.9142865 C26.0620323,15.7612818 26,15.575185 26,15.3839291 C26,14.8957485 26.3957485,14.5 26.8839291,14.5 L26.8839291,14.5 L28.1822066,14.5004024 C26.8878494,10.1445517 22.8489038,7 18.1160709,7 C14.3065232,7 10.8554533,9.04467879 8.99646119,12.2917586 C8.58485919,13.010699 7.6683735,13.259846 6.9494331,12.848244 C6.23049271,12.436642 5.98134571,11.5201563 6.39294771,10.8012159 C8.78111134,6.62983846 13.2198311,4 18.1160709,4 Z" id="形状结合" fill="#4292F3" fill-rule="nonzero"></path>
                </g>
            </g>
        </g>
    </g>
</svg>
